X:1
T:Title
%%score { ( 1 4 ) | ( 2 3 ) }
L:1/8
M:3/4
K:F
V:1 treble nm="Grand Piano"
V:4 treble 
V:2 bass 
V:3 bass 
V:1
 z2 z[Q:1/4=84] A _A=A | [DB]3 A [=B,G]>D | G3 G ^FG | [Ec]3 B G_A | [CA]3 F FF | [DF]3 F BF | %6
 [CA]3 A AA | [=B,A]D E2 F2 |[M:3/8] G3 |[M:7/16] cd3/2[CAc] |[M:3/4] [FA]-[CF-A-] [CFA]F GA | %11
[M:13/16] z FGBe3/2[Bd] |[M:3/4] [Bd]4 z2 | [FA]4 z2 | c4 z2 |[M:7/8] d- d2- d/ z/ z z2 | %16
[M:29/32] [FAc]/4-[FAc]/4-[FAc]/4-[FAc]/4-[FAc]/4-[FAc]/4-[FAc]/4-[FAc]/4-[FAc]/4-[FAc]/4-[FAc]/-<[FAc]/C/-<C/E/4-E/4-E/4-E/4-E/-<E/[B,EG]3/4 | %17
[M:3/8] [F,A,CF]3 |] %18
V:2
 z2 z C =B,C | z2 z C z z/ =B,/ | =B,3 _B, A,B, | z2 z D B,=B, | z2 z A, A,_E | z2 z D ^CC | %6
 z2 z C CC | F,-[F,=B,] [E,B,]2 [D,B,]2 |[M:3/8] [C,E,B,]3 |[M:7/16][K:treble] A_A3/2[K:bass]C, | %10
[M:3/4] F,F, F,[A,C][K:treble] [B,CE][A,CF] | %11
[M:13/16][K:bass] [G,CE][F,C][E,C][K:treble]GB3/2[K:bass][C,C] |[M:3/4] [C,C]C, C,C, C,C, | %13
 F,C, F,[K:treble][F,CF] [F,CF][G,CE] | [A,CF][G,B,][K:bass] [F,A,][G,B,E][K:treble] [A,CF][A,CF] | %15
[M:7/8] [B,DF][A,C][G,B,]3/2[B,DG][=B,D_A]3/2[B,EA] | %16
[M:29/32] C/-<C/[K:bass]A,/-<A,/F,/4-F,/4-F,/-<F,/C,/-<C,/C,/4-C,/4-C,/4-C,/4-C,/-<C,/C,3/4 | %17
[M:3/8] F,,3 |] %18
V:3
 x6 | F,,4 G,,2- | G,,4 z2 | [C,,C,]6 | [F,,F,]6 | B,,6 | [F,,F,]6 | G,,6 |[M:3/8] x3 | %9
[M:7/16][K:treble] x5/2[K:bass] x |[M:3/4] x4[K:treble] x2 | %11
[M:13/16][K:bass] x3[K:treble] x5/2[K:bass] x |[M:3/4] x6 | x3[K:treble] x3 | %14
 x2[K:bass] x2[K:treble] x2 |[M:7/8] x7 |[M:29/32] x[K:bass] x25/4 |[M:3/8] x3 |] %18
V:4
 x6 | x6 | x6 | x6 | x6 | x6 | x6 | x6 |[M:3/8] x3 |[M:7/16] x7/2 |[M:3/4] .C2 z2 z2 | %11
[M:13/16] B/-B/-B-<B z/ z/ z/ z/ z/ z |[M:3/4] z C C[C_E^F] [C=EG][CE_A] | CC CA AB | z E Fc c_e | %15
[M:7/8] z ^FG3/2de3/2d | %16
[M:29/32] z/4 z/4 z/4 z/4 z/4 z/4 z/4 z/4 z/4 z/4 z/4 z/4 z/4 z/4 z/4 z/4 z/ [CA]/4-[CA]/4-[CA]/4-[CA]/4-[CA]/4-[CA]/4-[CA]/-<[CA]/ z/4 | %17
[M:3/8] x3 |] %18

